X: 511
T: Dance All Night With a Bottle in My Hand
B: jims roots
M:C|
L:1/8
R: Reel
Q: 1/4=100
K:G
V:1 
%N:Brandywine 1979
%F:http://www.slippery-hill.com/recording/dance-all-night-bottle-my-hand-0
ef | "G"g2fa gedc | B[GB][GB][GB] [G2B2][GA][GB] | "D"[Gc][GB][GA]G FGAc | "G"[D2B2][G,G][G,G] [G,2G2]ef |
"G"gfga gedc | B[GB][GB][GB] [G2B2][GA][GB] | "D"[Gc][GB][GA]G FGAc | "G"[D2B2][G,G][G,G] [G,2G2] ||
"G"[DB][Dc] | "G"[D2d2][D2d2][D2d2][Dd][Dc] | [D2B2][G,G][G,G][G,2G2][GA][GB] | "D"[Gc][GB][GA]G FGAc | "G"[D2B2][G,G][G,G] [G,2G2][DB][Dc] |
GE|: "G"DB,[B,D]G DB,[B,D]G |"C"EC[CE]C [C2E](A2 | "D"A)BAF DFAA | "G"BG[BG][BG] [B2G]GE |
"G"DB,[B,D]G DB,[B,D]G |"C"EC[CE]C [C2E](A2 | "D"A)BAF DFAA | [1 "G"BG[BG][BG] [B2G]GE :| [2  "G"BG[BG][BG] [B2G]ef|]
V:D2d2 
[D2d2][Dd][Dc] | [D2B2][G,G][G,G][G,2G2][GA][GB] | "D"[Gc][GB][GA]G FGAc | "G"[D2B2][G,G][G,G] [G,2G2] |]
% abcbook-tune_id 6298c245fe5b84a221285a9a


% abcbook-boost 0
% abcbook-tablature 
% abcbook-transpose 
% abcbook-lastupdated 1654178373932
% abcbook-soundfonts 
% abcbook-repeats 1


